icons/outline/mug-off.svg

<svg xmlns="http://www.w3.org/2000/svg" width="24" height="24" viewBox="0 0 24 24" fill="none" stroke="currentColor" stroke-width="2" stroke-linecap="round" stroke-linejoin="round"><path d="M9 5h5.917a1.08 1.08 0 0 1 1.083 1.077v5.923m-.167 3.88a4.33 4.33 0 0 1 -4.166 3.12h-4.334c-2.393 0 -4.333 -1.929 -4.333 -4.308v-8.615a1.08 1.08 0 0 1 1.083 -1.077h.917"/><path d="M16 8h2.5c1.38 0 2.5 1.045 2.5 2.333v2.334c0 1.148 -.89 2.103 -2.06 2.297"/><path d="M3 3l18 18"/></svg>

<svg xmlns="http://www.w3.org/2000/svg" width="24" height="24" fill="none" stroke="currentColor" stroke-linecap="round" stroke-linejoin="round" stroke-width="2"><path d="M9 5h5.917A1.08 1.08 0 0 1 16 6.077V12m-.167 3.88A4.33 4.33 0 0 1 11.667 19H7.333C4.94 19 3 17.071 3 14.692V6.077A1.08 1.08 0 0 1 4.083 5H5M16 8h2.5c1.38 0 2.5 1.045 2.5 2.333v2.334c0 1.148-.89 2.103-2.06 2.297M3 3l18 18"/></svg>
